T: Both Meat And Drink
M: 6/8
L: 1/8
K: Gmaj
|: DGB d^cd | edB cAF | GBd gfg | bag fga | geg fdf | edB cde | fdf agf |1 gdB cAF :|2 cAF G2 g |||: gfg gfg | dBG FGA | =fef fef | agf agf |gfg bag | fga gfd | cAF DEF | AGF G3 :||: DGB d^cd | edB dcA |  GBd gfg | bag  faf  | |  geg fdf | ece gfe | fdf agf | gdB  cAF :||: G2 g gbg | dBG GBd | =fef fcf | ag=f ag^f | gfg bag | faf gdB | cAG FGA |1 AGF GBd :|2 AGF GFE :|
